X:56
M:2/4
L:1/8
Q:"Allegretto  "1/4=140
K:D
!p!(F/E/)|(D>EFB)|(AF)(Fd)|(AF)(FD)|\
[E2C2A,2] [ECA,] (F/E/)|(D>EF[AF])|
([dF]>efe)|[dBG]B[AFD]F|D2 D !mf!||\
([dF]>e[fd][df])|[e2c2E2A,2][ecEA] (d/e/)|\
(f>edB)|A[gc_B]H[fd=B]>e|\
"_risoluto."(d>BAF)|D2 [dAFD]||

